front/public/static/landing/logos/gray/Jumia.svg

<svg fill="none" height="240" viewBox="0 0 600 240" width="600" xmlns="http://www.w3.org/2000/svg"><path d="m481.899 75.0022c-11.771 0-21.266 9.4935-21.266 21.2659 0 11.7719 9.495 21.2659 21.266 21.2659s21.266-9.494 21.266-21.2659c0-12.1519-9.495-21.2659-21.266-21.2659z" fill="#364153"/><path d="m483.036 123.609c-.761 2.658-1.14 4.937-1.901 6.456l-.379.759c-.379 1.899-1.898 3.038-3.799 3.038h-1.136c-.761 0-1.519-.38-2.28-1.139-.379-.76-.758-1.519-.758-2.279l1.137-7.595c0-.379.382-1.139.761-1.518-11.014-2.659-18.986-12.532-18.986-24.3042 0-1.8986.378-3.4177.378-5.3164h-31.14c-1.897 0-3.416-1.1392-3.798-3.0378l-1.519-6.4557c-.758-2.2785-2.655-4.1775-5.314-4.1775h-9.116c-1.898 0-3.038 1.5192-3.038 3.0383 0 1.8986 1.519 3.0379 3.038 3.0379h4.939c1.897 0 3.416 1.1392 3.795 3.0378l12.153 49.3666c.758 2.278 2.659 4.177 5.318 4.177h49.744c2.658 0 4.56-1.519 5.317-4.177l4.178-16.709c-2.659 1.14-5.318 1.52-7.977 1.899.762 1.139.762 1.519.383 1.899zm-55.823-13.671c-.382-1.899-1.14-3.797-1.518-5.316l-.383-1.519c-.379-.76 0-1.519.383-2.279.378-.759 1.518-1.1388 2.276-1.1388h3.42c1.897 0 3.416 1.1388 3.416 3.0378l1.14 6.835c0 .76 0 1.519-.761 2.279-.379.759-1.519 1.139-2.276 1.139h-1.902c-1.897-.38-3.416-1.519-3.795-3.038zm11.772 22.785c-.379.759-1.519 1.139-2.28 1.139h-.379c-1.898 0-3.416-1.139-3.799-3.038l-.379-.759c-.378-1.899-1.14-4.178-1.897-6.836-.379-.759 0-1.519.379-2.278.378-.76 1.518-1.14 2.28-1.14h1.897c1.898 0 3.416 1.14 3.799 3.038l1.136 7.595c0 .76 0 1.899-.757 2.279zm14.051-1.519c0 1.519-1.14 2.658-2.659 2.658s-3.037-1.139-3.037-2.658l-1.14-7.975c0-.759 0-1.519.757-2.278.383-.76 1.523-1.14 2.28-1.14h1.14c1.898 0 3.416 1.52 3.416 3.418v7.975zm0-21.646c0 1.899-1.519 3.418-3.42 3.418h-2.659c-1.897 0-3.416-1.139-3.795-3.038l-.761-7.215c0-.76 0-1.519.761-2.278.758-.7598 1.519-1.1397 2.276-1.1397h4.56c1.898 0 3.038 1.5187 3.038 3.4177zm14.43 13.671-1.14 7.975c-.379 1.519-1.519 2.658-3.038 2.658-1.518 0-2.658-1.139-2.658-2.658v-7.975c0-1.898 1.518-3.418 3.416-3.418h1.14c.761 0 1.519.38 2.28 1.14z" fill="#364153"/><path d="m481.897 78.0394 5.318 10.6332 12.15 1.8986-8.734 8.3542 1.901 11.7716-10.635-5.316-10.631 5.316 1.898-11.7716-8.355-8.3542 11.771-1.8986z" fill="#fff"/><g fill="#364153"><path d="m434.808 165.002c5.032 0 9.112-4.25 9.112-9.493s-4.08-9.494-9.112-9.494c-5.033 0-9.113 4.251-9.113 9.494s4.08 9.493 9.113 9.493z"/><path d="m478.859 165.002c5.032 0 9.112-4.25 9.112-9.493s-4.08-9.494-9.112-9.494c-5.033 0-9.113 4.251-9.113 9.494s4.08 9.493 9.113 9.493z"/><path d="m200.126 146.395c-4.177 3.038-10.632 4.178-19.366 4.178h-12.532c-1.899 0-3.418 0-5.696 0-1.899 0-3.798-.38-5.696-.76-1.899-.38-3.798-1.139-5.317-1.519-1.899-.759-3.417-1.899-4.557-3.038-1.139-1.139-2.278-3.038-3.038-4.936-.759-1.899-1.139-4.178-1.139-7.216v-43.2904h11.392v42.9114c0 4.556 4.177 6.835 12.912 6.835h15.569c8.354 0 12.532-2.279 12.532-6.835v-42.9114h11.392v43.6704c-.38 5.696-2.278 10.253-6.456 12.911z"/><path d="m292.406 151.33v-39.873l-24.683 36.455c-.76 1.14-1.899 2.279-3.038 3.038-1.139.76-2.278 1.14-3.798 1.14-2.658 0-4.936-1.14-6.835-3.798l-24.683-37.215v40.253h-11.392v-55.0626c0-2.2785.759-3.7976 1.898-4.9369 1.139-1.1392 2.658-1.8986 4.557-1.8986 2.658 0 4.937 1.1392 6.456 3.0379l30.759 44.0502 30.379-43.6704c1.519-2.2785 3.418-3.4177 6.076-3.4177 1.899 0 3.418.7594 4.557 1.8986 1.139 1.1393 1.899 3.0383 1.899 5.3164v54.3031h-12.152z"/><path d="m315.191 150.952v-61.1384h11.393v61.1384z"/><path d="m404.05 151.332-9.495-16.709h-35.696l-9.114 16.709h-13.671l34.177-57.3413c1.519-2.658 3.798-4.1771 6.454-4.1771 2.659 0 4.939 1.5191 6.458 4.1771l33.416 57.3413zm-27.345-46.329-11.011 18.228h22.025z"/><path d="m131.393 123.611c0 18.607-6.836 26.582-18.987 29.24-11.772 2.279-15.5701 2.279-15.5701 2.279v-12.532c4.5571-.38 11.7721-1.139 16.3291-2.658 4.177-1.519 7.215-5.696 7.215-16.329l.38-22.405v-11.3924h11.392z"/></g></svg>

<svg width="600" height="240" viewBox="0 0 600 240" fill="none" xmlns="http://www.w3.org/2000/svg">
<path d="M481.899 75.0022C470.128 75.0022 460.633 84.4957 460.633 96.2681C460.633 108.04 470.128 117.534 481.899 117.534C493.67 117.534 503.165 108.04 503.165 96.2681C503.165 84.1162 493.67 75.0022 481.899 75.0022Z" fill="#364153"/>
<path d="M483.036 123.609C482.275 126.267 481.896 128.546 481.135 130.065L480.756 130.824C480.377 132.723 478.858 133.862 476.957 133.862H475.821C475.06 133.862 474.302 133.482 473.541 132.723C473.162 131.963 472.783 131.204 472.783 130.444L473.92 122.849C473.92 122.47 474.302 121.71 474.681 121.331C463.667 118.672 455.695 108.799 455.695 97.0268C455.695 95.1282 456.073 93.6091 456.073 91.7104H424.933C423.036 91.7104 421.517 90.5712 421.135 88.6726L419.616 82.2169C418.858 79.9384 416.961 78.0394 414.302 78.0394H405.186C403.288 78.0394 402.148 79.5586 402.148 81.0777C402.148 82.9763 403.667 84.1156 405.186 84.1156H410.125C412.022 84.1156 413.541 85.2548 413.92 87.1534L426.073 136.52C426.831 138.798 428.732 140.697 431.391 140.697H481.135C483.793 140.697 485.695 139.178 486.452 136.52L490.63 119.811C487.971 120.951 485.312 121.331 482.653 121.71C483.415 122.849 483.415 123.229 483.036 123.609ZM427.213 109.938C426.831 108.039 426.073 106.141 425.695 104.622L425.312 103.103C424.933 102.343 425.312 101.584 425.695 100.824C426.073 100.065 427.213 99.6852 427.971 99.6852H431.391C433.288 99.6852 434.807 100.824 434.807 102.723L435.947 109.558C435.947 110.318 435.947 111.077 435.186 111.837C434.807 112.596 433.667 112.976 432.91 112.976H431.008C429.111 112.596 427.592 111.457 427.213 109.938ZM438.985 132.723C438.606 133.482 437.466 133.862 436.705 133.862H436.326C434.428 133.862 432.91 132.723 432.527 130.824L432.148 130.065C431.77 128.166 431.008 125.887 430.251 123.229C429.872 122.47 430.251 121.71 430.63 120.951C431.008 120.191 432.148 119.811 432.91 119.811H434.807C436.705 119.811 438.223 120.951 438.606 122.849L439.742 130.444C439.742 131.204 439.742 132.343 438.985 132.723ZM453.036 131.204C453.036 132.723 451.896 133.862 450.377 133.862C448.858 133.862 447.34 132.723 447.34 131.204L446.2 123.229C446.2 122.47 446.2 121.71 446.957 120.951C447.34 120.191 448.48 119.811 449.237 119.811H450.377C452.275 119.811 453.793 121.331 453.793 123.229V131.204H453.036ZM453.036 109.558C453.036 111.457 451.517 112.976 449.616 112.976H446.957C445.06 112.976 443.541 111.837 443.162 109.938L442.401 102.723C442.401 101.963 442.401 101.204 443.162 100.445C443.92 99.6852 444.681 99.3053 445.438 99.3053H449.998C451.896 99.3053 453.036 100.824 453.036 102.723V109.558ZM467.466 123.229L466.326 131.204C465.947 132.723 464.807 133.862 463.288 133.862C461.77 133.862 460.63 132.723 460.63 131.204V123.229C460.63 121.331 462.148 119.811 464.046 119.811H465.186C465.947 119.811 466.705 120.191 467.466 120.951C467.466 121.71 467.466 122.47 467.466 123.229Z" fill="#364153"/>
<path d="M481.897 78.0394L487.215 88.6726L499.365 90.5712L490.631 98.9254L492.532 110.697L481.897 105.381L471.266 110.697L473.164 98.9254L464.809 90.5712L476.58 88.6726L481.897 78.0394Z" fill="white"/>
<path d="M434.808 165.002C439.84 165.002 443.92 160.752 443.92 155.509C443.92 150.266 439.84 146.015 434.808 146.015C429.775 146.015 425.695 150.266 425.695 155.509C425.695 160.752 429.775 165.002 434.808 165.002Z" fill="#364153"/>
<path d="M478.859 165.002C483.891 165.002 487.971 160.752 487.971 155.509C487.971 150.266 483.891 146.015 478.859 146.015C473.826 146.015 469.746 150.266 469.746 155.509C469.746 160.752 473.826 165.002 478.859 165.002Z" fill="#364153"/>
<path d="M200.126 146.395C195.949 149.433 189.494 150.573 180.76 150.573H168.228C166.329 150.573 164.81 150.573 162.532 150.573C160.633 150.573 158.734 150.193 156.836 149.813C154.937 149.433 153.038 148.674 151.519 148.294C149.62 147.535 148.102 146.395 146.962 145.256C145.823 144.117 144.684 142.218 143.924 140.32C143.165 138.421 142.785 136.142 142.785 133.104V89.8136H154.177V132.725C154.177 137.281 158.354 139.56 167.089 139.56H182.658C191.012 139.56 195.19 137.281 195.19 132.725V89.8136H206.582V133.484C206.202 139.18 204.304 143.737 200.126 146.395Z" fill="#364153"/>
<path d="M292.406 151.33V111.457L267.723 147.912C266.963 149.052 265.824 150.191 264.685 150.95C263.546 151.71 262.407 152.09 260.887 152.09C258.229 152.09 255.951 150.95 254.052 148.292L229.369 111.077V151.33H217.977V96.2674C217.977 93.9889 218.736 92.4698 219.875 91.3305C221.014 90.1913 222.533 89.4319 224.432 89.4319C227.09 89.4319 229.369 90.5711 230.888 92.4698L261.647 136.52L292.026 92.8496C293.545 90.5711 295.444 89.4319 298.102 89.4319C300.001 89.4319 301.52 90.1913 302.659 91.3305C303.798 92.4698 304.558 94.3688 304.558 96.6469V150.95H292.406V151.33Z" fill="#364153"/>
<path d="M315.191 150.952V89.8136H326.584V150.952H315.191Z" fill="#364153"/>
<path d="M404.05 151.332L394.555 134.623H358.859L349.745 151.332H336.074L370.251 93.9907C371.77 91.3327 374.049 89.8136 376.705 89.8136C379.364 89.8136 381.644 91.3327 383.163 93.9907L416.579 151.332H404.05ZM376.705 105.003L365.694 123.231H387.719L376.705 105.003Z" fill="#364153"/>
<path d="M131.393 123.611C131.393 142.218 124.557 150.193 112.406 152.851C100.634 155.13 96.8359 155.13 96.8359 155.13V142.598C101.393 142.218 108.608 141.459 113.165 139.94C117.342 138.421 120.38 134.244 120.38 123.611L120.76 101.206V89.8136H132.152L131.393 123.611Z" fill="#364153"/>
</svg>
